X:255
T:Reel 255
M:4/4
K:Gmaj
L:1/8
G2BG DGBG|A2eg fdcA|G2BG DGBd|cAFG AGG2:|dg (3gfg dg (3gfg |dgfg dffg|defg agfg| (3abf bg agfe|dg (3gfg bg (3gfg |defd egf2|afge fdef|dcde fdcA|
